X:236
T:Leitrim Fancy, The
R:jig
D:Bothy Band: Out of the Wind, Into the Sun
Z:id:hn-jig-236
M:6/8
K:Edor
GBG FAF|E2B BAB|GAG FGF|DFA AFD|
GBG FAF|E2B BAB|GAB dBG|ABG FED:|
|:GAB ~d3|edB dBA|GAB dBG|ABG FED|
GAB ~d3|edB def|gfe dBG|ABG FED:|

